X: 297
T:Spencefield Lane
% Nottingham Music Database
S:Chris Dewhurst 1980, via Phil Rowe
M:6/8
K:Am
E|"Am"e2d cBc|A2E A^GA|"E"B2E B^GB|efe dcB|
"Am"A2B cBc|"Dm"d2e g2f|"Am"e2A "E"AB^G|"Am"A3 -A2::
A|"A"e2A A^ce|"Dm"f2e d2c|"G"B2G GBd|"C"e2d c2B|
"F"A2F Ace|"Dm"d2c BAB|"Am"c2A "E"AB^G|"Am"A3 -A2:|


